src/lib/packages/icons/src/assets/filled/scan-circle.svg

<svg width="24" height="24" viewBox="0 0 24 24" fill="none" xmlns="http://www.w3.org/2000/svg">
<path d="M23 12C23 18.065 18.065 23 12 23C5.935 23 1 18.065 1 12C1 11.196 1.09007 10.376 1.26807 9.56396C1.38407 9.02396 1.91201 8.68205 2.45801 8.80005C2.99701 8.91805 3.33895 9.45099 3.22095 9.98999C3.07495 10.662 3 11.338 3 11.999C3 16.961 7.037 20.999 12 20.999C16.963 20.999 21 16.961 21 11.999C21 7.03702 16.963 2.99902 12 2.99902C9.928 2.99902 7.97096 3.69592 6.38696 4.97192L12.707 11.292C13.098 11.683 13.098 12.3151 12.707 12.7061C12.512 12.9011 12.256 12.999 12 12.999C11.744 12.999 11.488 12.9011 11.293 12.7061L4.22998 5.64307C4.22998 5.64307 4.229 5.64309 4.229 5.64209C4.229 5.64109 4.22903 5.64111 4.22803 5.64111L4.22705 5.63989C4.20105 5.61389 4.19095 5.57998 4.16895 5.55298C4.10695 5.47598 4.04406 5.39903 4.00806 5.31104C3.98606 5.25604 3.98612 5.19689 3.97412 5.13989C3.96012 5.07189 3.93408 5.00506 3.93408 4.93506C3.93408 4.86506 3.95912 4.798 3.97412 4.729C3.98612 4.672 3.98508 4.61408 4.00708 4.55908C4.03408 4.49208 4.08691 4.436 4.12891 4.375C4.16191 4.326 4.18307 4.27203 4.22607 4.22803C4.22607 4.22803 4.22703 4.22705 4.22803 4.22705C4.22803 4.22705 4.228 4.22705 4.229 4.22705C6.297 2.14705 9.05795 1.00098 12.002 1.00098C18.065 0.999977 23 5.935 23 12Z" fill="currentColor"/>
</svg>

<svg xmlns="http://www.w3.org/2000/svg" width="24" height="24" fill="none"><path fill="currentColor" d="M23 12c0 6.065-4.935 11-11 11S1 18.065 1 12c0-.804.09-1.624.268-2.436a1 1 0 1 1 1.953.426A9.487 9.487 0 0 0 3 11.999c0 4.962 4.037 9 9 9s9-4.038 9-9-4.037-9-9-9a8.896 8.896 0 0 0-5.613 1.973l6.32 6.32a.999.999 0 1 1-1.414 1.414L4.23 5.643h-.001l-.001-.002V5.64c-.027-.026-.037-.06-.06-.087-.061-.077-.124-.154-.16-.242-.022-.055-.022-.114-.034-.171-.014-.068-.04-.135-.04-.205 0-.07.025-.137.04-.206.012-.057.011-.115.033-.17.027-.067.08-.123.122-.184.033-.049.054-.103.097-.147h.003A10.884 10.884 0 0 1 12.002 1C18.065 1 23 5.935 23 12Z"/></svg>
